usr/share/icons/biglinux-icons-material/16/actions/object-rotate-right.svg

<svg xmlns="http://www.w3.org/2000/svg" viewBox="0 0 16 16">
  <defs id="defs3051">
    <style type="text/css" id="current-color-scheme">
      .ColorScheme-Text {
        color:#363636;
      }
      </style>
  </defs>
 <path style="fill:currentColor;fill-opacity:1;stroke:none" 
     d="M 8.171875 1.671875 L 7.4648438 2.3789062 L 8.4140625 3.328125 L 9.0859375 4 L 5 4 L 5 5 L 9.0859375 5 L 8.4140625 5.671875 L 7.4648438 6.6210938 L 8.171875 7.328125 L 9.1210938 6.3789062 L 11 4.5 L 9.1210938 2.6210938 L 8.171875 1.671875 z M 3.5 5 C 3.22386 5 3 5.22386 3 5.5 C 3 5.77614 3.22386 6 3.5 6 C 3.77614 6 4 5.77614 4 5.5 C 4 5.22386 3.77614 5 3.5 5 z M 10.46875 6.5625 L 6.5625 10.46875 L 10.09375 14 L 14 10.09375 L 10.46875 6.5625 z M 2.5 8 C 2.22386 8 2 8.22386 2 8.5 C 2 8.77614 2.22386 9 2.5 9 C 2.77614 9 3 8.77614 3 8.5 C 3 8.22386 2.77614 8 2.5 8 z M 3.5 11 C 3.22386 11 3 11.22386 3 11.5 C 3 11.77614 3.22386 12 3.5 12 C 3.77614 12 4 11.77614 4 11.5 C 4 11.22386 3.77614 11 3.5 11 z M 6.5 12 C 6.22386 12 6 12.22386 6 12.5 C 6 12.77614 6.22386 13 6.5 13 C 6.77614 13 7 12.77614 7 12.5 C 7 12.22386 6.77614 12 6.5 12 z "
     class="ColorScheme-Text"
     />
</svg>

<svg xmlns="http://www.w3.org/2000/svg" viewBox="0 0 16 16"><path d="m8.172 1.672-.707.707.95.95.67.671H5v1h4.086l-.672.672-.95.95.708.706.95-.95L11 4.5 9.121 2.621l-.95-.95zM3.5 5a.5.5 0 1 0 0 1 .5.5 0 0 0 0-1zm6.969 1.563-3.906 3.906L10.092 14 14 10.094l-3.531-3.531zM2.5 8a.5.5 0 1 0 0 1 .5.5 0 0 0 0-1zm1 3a.5.5 0 1 0 0 1 .5.5 0 0 0 0-1zm3 1a.5.5 0 1 0 0 1 .5.5 0 0 0 0-1z" style="fill:currentColor;fill-opacity:1;stroke:none;color:#dedede"/></svg>
